X:1
T:Omie Wise
M:4/4
L:1/4
K:G
 B| d2 B G| d2 e d| c2 G E| C3| E| D3/2 D/2 E G| A2 B(3A3.99999962500005/11.9999985000002A3.99999962500005/11.9999985000002B3.99999962500005/11.9999985000002A3.99999962500005/11.9999985000002B3.99999962500005/11.9999985000002A3.99999962500005/11.9999985000002|\
 G2 D D| D3||
